X:242
T:Waltz
O:No 242 William Clarke of Feltwell
M:3/8
L:1/16
N:Time signature in m.s. given as 3/4.
K:G
D2|G4B2|d3g(fe)|(ed)(dB)(ed)|(dc)c2 D2|F4A2|c4e2|edcBcA|G4::d2|b3gdB|(dc)c2 c2|a3fdc|cB B2d2|g2gdgb|a2abc'a|gfedef|g4::D2|(GD)(BD)(dB)|(gd)(bg)(dB)|(dc) A2A2|{^A}B2G2D2|(GD)(BG)(dB)|gdbgdB|dcAdcA|G4::d2|(c'a)(af)(fd)|bggddB|Addffa|dggbbd'|(c'a)(af)(fd)|bggddB|Addffa|g4:|

